X: 20611
T: The WHITE COCKADE
O: Jacobite melody.
Q: "Briskly."
%R: march
B: W. Hamilton "Universal Tune-Book" Vol. 2 Glasgow 1846 p.61 #1
S: http://s3-eu-west-1.amazonaws.com/itma.dl.printmaterial/book_pdfs/hamiltonvol2web.pdf
Z: 2016 John Chambers <jc:trillian.mit.edu>
M: C|
L: 1/8
K: G
% - - - - - - - - - - - - - - - - - - - - - - - - -
g2 |\
d2B2 B2(AG) | B2B2 B2g2 | d2B2 B2(AG) | B2A2 A2(GA) |\
B2B2 (cB)(AG) | A2B2 g3a | (b>a)(gf) (ag)(fe) | d2B2 B2 |]
(Bc) |\
d2B2 g2B2 | d2d2 d3e | (ed)(cB) g2(fg) | a2A2 A2(GA) |\
B2B2 (cB)(AG) | A2B2 g3a | (ba)(gf) g2(fe) | d2B2 B2 |]
% - - - - - - - - - - - - - - - - - - - - - - - - -

%%sep 1 1 500
%%sep 1 1 500

